X: 3523
T: Big Country
R: reel
M: 4/4
K: Emajor
B,C|:E2EF G2FE|G2FE CE3|-E6B,C|E2EF G2GB|
c2BG B4-|B6GB|c2cB G2FE|G2FE C2-|C6B,C|
E2EF G2AG|F2ED E4 -|1 E6B,C:|2 E8||
|:Ge3 Gd3|Gc3 EB3|Ge3 Gd3|Gc3 Bg3|
Ge3 Gd3|Gc3 EB2 C/D/|E2ED2E2G -|G8:|

